build/system/ArrowDownTwoSolid.svg

<svg xmlns="http://www.w3.org/2000/svg" fill="none" viewBox="0 0 24 24" focusable="false"><path d="M0 0H24V24H0z"/><path fill="#74767B" fill-rule="evenodd" d="M20.9947 12.3123C20.9867 12.5463 20.7182 12.6683 20.5184 12.5463C19.6391 12.0094 18.6057 11.7 17.5 11.7C15.4718 11.7 13.6867 12.7411 12.65 14.318L12.65 8C12.65 7.64102 12.359 7.35 12 7.35C11.641 7.35 11.35 7.64102 11.35 8L11.35 14.9561L8.55676 12.0532C8.30785 11.7945 7.89637 11.7866 7.63769 12.0355C7.37901 12.2844 7.37109 12.6959 7.62 12.9546L11.5315 17.0197C11.5847 17.075 11.6453 17.1188 11.7103 17.1511C11.7035 17.2666 11.7 17.3829 11.7 17.5C11.7 18.6057 12.0094 19.6391 12.5463 20.5184C12.6683 20.7182 12.5463 20.9867 12.3123 20.9947C12.2086 20.9982 12.1045 21 12 21C7.02944 21 3 16.9706 3 12C3 7.02944 7.02944 3 12 3C16.9706 3 21 7.02944 21 12C21 12.1045 20.9982 12.2086 20.9947 12.3123ZM22 17.5C22 19.9853 19.9853 22 17.5 22C15.0147 22 13 19.9853 13 17.5C13 15.0147 15.0147 13 17.5 13C19.9853 13 22 15.0147 22 17.5ZM17.8478 16.3745C17.6602 16.1055 17.2826 16.0546 17.0305 16.2642L16.709 16.5317C16.433 16.7612 16.0231 16.7236 15.7936 16.4476C15.564 16.1715 15.6017 15.7617 15.8777 15.5322L16.1993 15.2647C17.0368 14.5682 18.291 14.7373 18.9141 15.6308C19.4421 16.3879 19.3349 17.4177 18.6623 18.0499L17.9339 18.7346L18.979 18.7346C19.3379 18.7346 19.629 19.0256 19.629 19.3846C19.629 19.7435 19.3379 20.0345 18.979 20.0345L16.2933 20.0345C16.0268 20.0345 15.7872 19.8718 15.689 19.624C15.5908 19.3761 15.6539 19.0935 15.8482 18.9109L17.772 17.1027C17.9744 16.9124 18.0067 16.6024 17.8478 16.3745Z"/></svg>

<svg xmlns="http://www.w3.org/2000/svg" fill="none" viewBox="0 0 24 24" focusable="false"><path fill="#74767B" fill-rule="evenodd" d="M20.99 12.31c-.01.23-.28.35-.48.23-.88-.54-1.91-.84-3.01-.84-2.03 0-3.82 1.04-4.86 2.61V8c0-.36-.29-.65-.64-.65-.36 0-.65.29-.65.65v6.95l-2.8-2.9a.65.65 0 0 0-.92-.02c-.26.25-.26.66-.01.92l3.91 4.06c.05.06.11.1.18.14-.01.11-.01.23-.01.35 0 1.1.3 2.13.84 3.01.12.2 0 .47-.23.48-.11 0-.21.01-.31.01-4.98 0-9-4.03-9-9 0-4.98 4.02-9 9-9 4.97 0 9 4.02 9 9 0 .1-.01.2-.01.31M22 17.5c0 2.48-2.02 4.5-4.5 4.5a4.5 4.5 0 1 1 4.5-4.5m-4.16-1.13a.55.55 0 0 0-.81-.11l-.33.27a.64.64 0 0 1-.91-.09.65.65 0 0 1 .08-.91l.32-.27c.84-.7 2.1-.53 2.72.37.53.75.42 1.78-.25 2.41l-.73.69h1.04c.36 0 .65.29.65.65s-.29.65-.65.65h-2.68c-.27 0-.51-.16-.61-.41a.67.67 0 0 1 .16-.71l1.93-1.81c.2-.19.23-.5.07-.73"/></svg>
